X:35
%%etbk:tnset id:12,pos:3,rep:3x,ant:
%%etbk:skill ?
%%etbk:pldat 2013-11-21T18:06,2013-11-18T18:37,2013-11-03T14:57,2013-09-29T14:44,2013-09-17T10:36,2013-08-28T16:12,2013-05-21T15:52,2013-05-07T19:45,2013-05-06T18:19
T: Lilac, The
Z: Piano Box Version by Martin Fleischmann
H: Created 2013-02-19 /  Last Modified 2013-02-19
M: 4/4
L: 1/8
R: reel
K: Ador
|:!5!e3d !3!c!1!A!2!A!1!A | !3!cded !3!c!1!A !3!(3A!2!A!1!A | !5![e3A]d !3!c!1!AAA | !3!BA!1!GA B!4!c!3!d!5!g|
!4!e3!3!d !2!c!1!A (3AAA | !3!cd ed c!5!AzA | !5!a3g !2!e3!1!d | !3!c!2!A!1!G!3!B !2!!1!A4:|
!2!e2 !5!ag !2!e2e!1!d | !3!cded cAAA | !5!e2ed !3!c2!4!d!2!e | !2!e2!4!a!5!b !4!a!3!g!2!e!1!d |
!2!e2 !5!ag !2!e2e!1!d | !2!cded !3!c!1!A (3AAA | !5!e3d !3!c!1!AAA | !3!BA!1!G!3!B !2!!1!A4:||
